flaticon/interaction/image-9.svg

<svg xmlns="http://www.w3.org/2000/svg" width="32" height="32" viewBox="0 0 24 24">
    <path d="M 23.25 16.910156 L 22.652344 16.792969 C 22.371094 16.742188 22.152344 16.558594 22.046875 16.292969 C 21.941406 16.023438 21.980469 15.742188 22.148438 15.511719 L 22.523438 15 C 22.644531 14.835938 22.628906 14.605469 22.484375 14.460938 L 21.671875 13.652344 C 21.53125 13.511719 21.3125 13.492188 21.148438 13.601562 L 20.644531 13.941406 C 20.40625 14.105469 20.121094 14.128906 19.859375 14.015625 C 19.597656 13.902344 19.421875 13.671875 19.378906 13.390625 L 19.285156 12.765625 C 19.253906 12.5625 19.078125 12.414062 18.875 12.414062 L 17.730469 12.414062 C 17.53125 12.414062 17.359375 12.554688 17.324219 12.75 L 17.175781 13.523438 C 17.121094 13.796875 16.945312 14.015625 16.6875 14.121094 C 16.425781 14.226562 16.148438 14.199219 15.917969 14.042969 L 15.265625 13.601562 C 15.101562 13.492188 14.882812 13.511719 14.742188 13.652344 L 13.929688 14.460938 C 13.785156 14.605469 13.769531 14.835938 13.890625 15 L 14.265625 15.511719 C 14.433594 15.742188 14.46875 16.027344 14.367188 16.292969 C 14.261719 16.558594 14.039062 16.742188 13.761719 16.792969 L 13.164062 16.910156 C 12.96875 16.945312 12.828125 17.117188 12.828125 17.316406 L 12.828125 18.460938 C 12.828125 18.664062 12.976562 18.839844 13.179688 18.871094 L 13.804688 18.96875 C 14.089844 19.011719 14.316406 19.183594 14.429688 19.445312 C 14.542969 19.707031 14.515625 19.996094 14.355469 20.230469 L 14.015625 20.734375 C 13.90625 20.898438 13.925781 21.121094 14.066406 21.257812 L 14.875 22.070312 C 15.019531 22.214844 15.246094 22.230469 15.414062 22.113281 L 15.925781 21.734375 C 16.15625 21.566406 16.441406 21.53125 16.707031 21.632812 C 16.972656 21.738281 17.15625 21.960938 17.207031 22.238281 L 17.324219 22.835938 C 17.359375 23.03125 17.53125 23.171875 17.730469 23.171875 L 18.875 23.171875 C 19.078125 23.171875 19.253906 23.023438 19.285156 22.820312 L 19.351562 22.378906 C 19.394531 22.097656 19.582031 21.859375 19.847656 21.75 C 20.113281 21.640625 20.410156 21.675781 20.640625 21.847656 L 21 22.109375 C 21.164062 22.230469 21.394531 22.214844 21.539062 22.070312 L 22.347656 21.257812 C 22.488281 21.117188 22.507812 20.898438 22.398438 20.734375 L 22.058594 20.230469 C 21.898438 19.996094 21.871094 19.707031 21.984375 19.445312 C 22.097656 19.183594 22.328125 19.011719 22.609375 18.964844 L 23.234375 18.871094 C 23.4375 18.839844 23.585938 18.664062 23.585938 18.460938 L 23.585938 17.316406 C 23.585938 17.117188 23.445312 16.945312 23.25 16.910156 Z M 22.757812 18.105469 L 22.484375 18.148438 C 21.921875 18.234375 21.453125 18.597656 21.226562 19.117188 C 21 19.636719 21.054688 20.226562 21.371094 20.695312 L 21.519531 20.914062 L 21.203125 21.234375 L 21.128906 21.179688 C 20.664062 20.835938 20.066406 20.765625 19.53125 20.988281 C 18.992188 21.207031 18.621094 21.683594 18.535156 22.253906 L 18.519531 22.34375 L 18.070312 22.34375 L 18.019531 22.082031 C 17.914062 21.527344 17.535156 21.070312 17.007812 20.863281 C 16.480469 20.65625 15.890625 20.734375 15.433594 21.066406 L 15.210938 21.234375 L 14.890625 20.914062 L 15.042969 20.695312 C 15.359375 20.226562 15.414062 19.636719 15.1875 19.117188 C 14.960938 18.597656 14.492188 18.234375 13.929688 18.148438 L 13.65625 18.105469 L 13.65625 17.65625 L 13.917969 17.605469 C 14.472656 17.5 14.929688 17.121094 15.136719 16.59375 C 15.34375 16.066406 15.265625 15.480469 14.933594 15.023438 L 14.765625 14.796875 L 15.085938 14.480469 L 15.453125 14.726562 C 15.910156 15.039062 16.492188 15.097656 17.003906 14.886719 C 17.515625 14.671875 17.882812 14.222656 17.988281 13.675781 L 18.070312 13.242188 L 18.519531 13.242188 L 18.5625 13.515625 C 18.648438 14.078125 19.011719 14.546875 19.53125 14.773438 C 20.050781 15 20.640625 14.945312 21.109375 14.628906 L 21.328125 14.480469 L 21.648438 14.796875 L 21.480469 15.023438 C 21.148438 15.476562 21.070312 16.066406 21.277344 16.59375 C 21.484375 17.121094 21.941406 17.5 22.496094 17.605469 L 22.757812 17.65625 Z M 22.757812 18.105469"/>
    <path d="M18.207031 15.722656C17.066406 15.722656 16.136719 16.652344 16.136719 17.792969 16.136719 18.933594 17.066406 19.863281 18.207031 19.863281 19.347656 19.863281 20.277344 18.933594 20.277344 17.792969 20.277344 16.652344 19.347656 15.722656 18.207031 15.722656zM18.207031 19.035156C17.523438 19.035156 16.964844 18.476562 16.964844 17.792969 16.964844 17.109375 17.523438 16.550781 18.207031 16.550781 18.890625 16.550781 19.449219 17.109375 19.449219 17.792969 19.449219 18.476562 18.890625 19.035156 18.207031 19.035156zM8.925781 6.441406C8.925781 5.171875 7.890625 4.136719 6.621094 4.136719 5.351562 4.136719 4.316406 5.171875 4.316406 6.441406 4.316406 7.710938 5.351562 8.746094 6.621094 8.746094 7.890625 8.746094 8.925781 7.714844 8.925781 6.441406zM5.144531 6.441406C5.144531 5.628906 5.804688 4.964844 6.621094 4.964844 7.433594 4.964844 8.097656 5.628906 8.097656 6.441406 8.097656 7.257812 7.433594 7.917969 6.621094 7.917969 5.804688 7.917969 5.144531 7.257812 5.144531 6.441406zM2.585938 15.996094C2.667969 16.089844 2.78125 16.136719 2.898438 16.136719 2.992188 16.136719 3.089844 16.105469 3.171875 16.035156L9.921875 10.09375 12.949219 13.121094C13.109375 13.28125 13.371094 13.28125 13.535156 13.121094 13.695312 12.957031 13.695312 12.695312 13.535156 12.535156L12.777344 11.78125 16.578125 7.621094 21.238281 11.890625C21.40625 12.046875 21.667969 12.035156 21.820312 11.867188 21.976562 11.695312 21.964844 11.433594 21.796875 11.28125L16.832031 6.730469C16.75 6.65625 16.640625 6.617188 16.53125 6.621094 16.421875 6.625 16.320312 6.675781 16.246094 6.753906L12.191406 11.195312 10.230469 9.230469C10.078125 9.078125 9.828125 9.070312 9.664062 9.214844L2.621094 15.414062C2.453125 15.5625 2.433594 15.824219 2.585938 15.996094zM2.585938 15.996094"/>
    <path d="M 23.585938 0.828125 L 0.414062 0.828125 C 0.183594 0.828125 0 1.011719 0 1.242188 L 0 19.449219 C 0 19.675781 0.183594 19.863281 0.414062 19.863281 L 10.757812 19.863281 C 10.988281 19.863281 11.171875 19.675781 11.171875 19.449219 C 11.171875 19.21875 10.988281 19.035156 10.757812 19.035156 L 0.828125 19.035156 L 0.828125 1.65625 L 23.171875 1.65625 L 23.171875 13.242188 C 23.171875 13.46875 23.355469 13.65625 23.585938 13.65625 C 23.816406 13.65625 24 13.46875 24 13.242188 L 24 1.242188 C 24 1.011719 23.816406 0.828125 23.585938 0.828125 Z M 23.585938 0.828125"/>
</svg>

<svg xmlns="http://www.w3.org/2000/svg" width="32" height="32" viewBox="0 0 24 24">
    <path d="M23.25 16.91l-.598-.117a.792.792 0 0 1-.605-.5.8.8 0 0 1 .101-.781l.375-.512a.416.416 0 0 0-.039-.54l-.812-.808a.414.414 0 0 0-.524-.05l-.503.34a.797.797 0 0 1-.786.074.803.803 0 0 1-.48-.625l-.094-.625a.415.415 0 0 0-.41-.352H17.73c-.199 0-.37.14-.406.336l-.148.773a.803.803 0 0 1-.488.598.806.806 0 0 1-.77-.078l-.652-.441a.414.414 0 0 0-.524.05l-.812.809a.416.416 0 0 0-.04.539l.376.512a.812.812 0 0 1-.504 1.281l-.598.117a.411.411 0 0 0-.336.406v1.145c0 .203.149.379.352.41l.625.098a.792.792 0 0 1 .625.476.806.806 0 0 1-.075.785l-.34.504a.414.414 0 0 0 .051.524l.809.812a.42.42 0 0 0 .54.043l.51-.379a.812.812 0 0 1 1.282.504l.117.598a.411.411 0 0 0 .406.336h1.145a.415.415 0 0 0 .41-.352l.067-.441a.813.813 0 0 1 .496-.629.804.804 0 0 1 .793.098l.359.261a.416.416 0 0 0 .54-.039l.808-.812c.14-.14.16-.36.05-.524l-.34-.504a.806.806 0 0 1-.074-.785.81.81 0 0 1 .625-.48l.625-.094a.415.415 0 0 0 .352-.41v-1.145c0-.199-.14-.37-.336-.406zm-.492 1.195l-.274.043a1.635 1.635 0 0 0-1.257.97c-.227.519-.172 1.109.144 1.577l.149.22-.317.32-.074-.055a1.62 1.62 0 0 0-1.598-.192c-.539.219-.91.696-.996 1.266l-.015.09h-.45l-.05-.262a1.647 1.647 0 0 0-2.586-1.016l-.223.168-.32-.32.152-.219a1.637 1.637 0 0 0 .145-1.578 1.635 1.635 0 0 0-1.258-.969l-.274-.043v-.449l.262-.05a1.632 1.632 0 0 0 1.219-1.012 1.64 1.64 0 0 0-.203-1.57l-.168-.227.32-.317.367.247a1.638 1.638 0 0 0 2.535-1.051l.082-.434h.45l.043.274c.085.562.449 1.03.968 1.257.52.227 1.11.172 1.578-.144l.22-.149.32.317-.169.226a1.638 1.638 0 0 0-.203 1.57c.207.528.664.907 1.22 1.012l.26.051zm0 0"/>
    <path d="M18.207 15.723c-1.14 0-2.07.93-2.07 2.07 0 1.14.93 2.07 2.07 2.07 1.14 0 2.07-.93 2.07-2.07 0-1.14-.93-2.07-2.07-2.07zm0 3.312a1.245 1.245 0 0 1-1.242-1.242c0-.684.558-1.242 1.242-1.242.684 0 1.242.558 1.242 1.242 0 .684-.558 1.242-1.242 1.242zm0 0M8.926 6.441A2.309 2.309 0 0 0 6.62 4.137 2.309 2.309 0 0 0 4.316 6.44a2.309 2.309 0 0 0 2.305 2.305 2.306 2.306 0 0 0 2.305-2.305zm-3.781 0c0-.812.66-1.476 1.476-1.476A1.48 1.48 0 0 1 8.098 6.44c0 .817-.664 1.477-1.477 1.477-.816 0-1.476-.66-1.476-1.477zm0 0M2.586 15.996a.418.418 0 0 0 .586.04l6.75-5.942 3.027 3.027c.16.16.422.16.586 0a.417.417 0 0 0 0-.586l-.758-.754 3.801-4.16 4.66 4.27a.414.414 0 0 0 .559-.61l-4.965-4.55a.417.417 0 0 0-.586.023l-4.055 4.441-1.96-1.965a.416.416 0 0 0-.567-.015l-7.043 6.2a.413.413 0 0 0-.035.581zm0 0"/>
    <path d="M23.586.828H.414A.412.412 0 0 0 0 1.242V19.45c0 .227.184.414.414.414h10.344a.414.414 0 0 0 0-.828H.828V1.656h22.344v11.586a.414.414 0 0 0 .828 0v-12a.412.412 0 0 0-.414-.414zm0 0"/>
</svg>
